X: 6
T: Missa Au travail suis / Credo
N: Derived from Ock1002c-Missa_Au_travail_suis-Credo.krn
C: Johannes Ockeghem
%%abc-version 2.0
%%abcx-abcm2ps-target-version 5.9.1 (29 Sep 2008)
%%abc-creator hum2abc beta
%%abcx-conversion-date 2019/02/17 07:26:13
%%abc-edited-by Jesse Rodin
%%abc-edited-by Jesse Rodin 8-17-2012
%%abcx-initial-encoding-date 2012/08/17/
%%humdrum-veritas 3891400161
%%humdrum-veritas-data 3452727469
%%linebreak <none>
%%barnumbers 0
L: 1/4
M: 4/2
Q: 1/2=120
%%staves [1 2 3 4]
V: 1 clef=treble
V: 2 clef=treble-8
V: 3 clef=bass
V: 4 clef=bass
K: C
[V:1] z8 | 
[V:2] z8 | 
[V:3] D,4F,4 | 
[V:4] z8 | 
[V:1] z8 | 
[V:2] z8 | 
[V:3] E,4A,,4 | 
[V:4] z4E,4 | 
[V:1] z8 | 
[V:2] z8 | 
[V:3] z4G,4 | 
[V:4] F,4E,4 | 
[V:1] z8 | 
[V:2] z8 | 
[V:3] A,4F,2D,2 | 
[V:4] C,2D,2A,,2D,2- | 
[V:1] z4z2A2 | 
[V:2] z4z2d2 | 
[V:3] E,4D,4 | 
[V:4] D,2^C,2D,4 | 
[V:1] A2G2A2B2 | 
[V:2] f2e2c2d2 | 
[V:3] z8 | 
[V:4] z8 | 
[V:1] c3BG2z2 | 
[V:2] A3BcdB2 | 
[V:3] z8 | 
[V:4] z4z2G,2 | 
[V:1] z8 | 
[V:2] A2c2c2c2- | 
[V:3] z8 | 
[V:4] A,2A,3A,E,2 | 
[V:1] z8 | 
[V:2] ccA2B2c2 | 
[V:3] z8 | 
[V:4] z2A,2G,2A,2 | 
[V:1] z8 | 
[V:2] d3cA4 | 
[V:3] z6F,2- | 
[V:4] _B,3A,F,4 | 
[V:1] A4F2G2 | 
[V:2] z8 | 
[V:3] F,2F,2D,2E,2 | 
[V:4] z8 | 
[V:1] F2D2C2F2- | 
[V:2] z8 | 
[V:3] F,2G,2A,2_B,2 | 
[V:4] z8 | 
[V:1] F2E2F4 | 
[V:2] z8 | 
[V:3] G,2z2F,4 | 
[V:4] z4z2F,2- | 
[V:1] z8 | 
[V:2] z8 | 
[V:3] F,2A,4A,2 | 
[V:4] F,2F,2A,4 | 
[V:1] z8 | 
[V:2] z8 | 
[V:3] D,3D,D,2C,2 | 
[V:4] A,2A,3A,A,2 | 
[V:1] z8 | 
[V:2] z8 | 
[V:3] D,2A,,4C,2 | 
[V:4] B,2C4A,2- | 
[V:1] z8 | 
[V:2] z4e2e2 | 
[V:3] B,,4A,,4 | 
[V:4] A,^F,^G,2A,2E,2 | 
[V:1] z8 | 
[V:2] d2d2c4 | 
[V:3] F,2F,2E,2E,2 | 
[V:4] z2A,3G,E,2 | 
[V:1] F2F2E2E2 | 
[V:2] d4z2e2 | 
[V:3] D,4C,4 | 
[V:4] F,2A,3G,G,2 | 
[V:1] D4C4 | 
[V:2] f4e4 | 
[V:3] D,3C,A,,4 | 
[V:4] F,2A,4A,2- | 
[V:1] D2E3DB,2 | 
[V:2] z8 | 
[V:3] D,2C,2E,4 | 
[V:4] A,B,C3B,G,2 | 
[V:1] A,4z4 | 
[V:2] z2e2g4 | 
[V:3] A,,4z4 | 
[V:4] A,3G,E,4 | 
[V:1] z2A2c4 | 
[V:2] f4e2a2- | 
[V:3] z8 | 
[V:4] D,4z4 | 
[V:1] B4A2A2- | 
[V:2] a2g2f2f2 | 
[V:3] z8 | 
[V:4] z8 | 
[V:1] A2G2A2F2 | 
[V:2] e2e2d4 | 
[V:3] z8 | 
[V:4] z8 | 
[V:1] E2E2D2F2- | 
[V:2] c4d4 | 
[V:3] z8 | 
[V:4] z8 | 
[V:1] FEC2z4 | 
[V:2] A4z4 | 
[V:3] z8 | 
[V:4] F,4E,4 | 
[V:1] z8 | 
[V:2] z8 | 
[V:3] F,4E,4 | 
[V:4] D,2D,3C,A,,2 | 
[V:1] z8 | 
[V:2] z8 | 
[V:3] D,2D,3C,A,,2 | 
[V:4] z2D,2F,2E,2 | 
[V:1] z8 | 
[V:2] z2d2f2e2 | 
[V:3] z8 | 
[V:4] F,2G,2A,4 | 
[V:1] z6c2 | 
[V:2] f2g2a4 | 
[V:3] z2_B,2A,4 | 
[V:4] z8 | 
[V:1] B4A4 | 
[V:2] z8 | 
[V:3] G,4F,4 | 
[V:4] z8 | 
[V:1] G4c4 | 
[V:2] z4a4 | 
[V:3] z8 | 
[V:4] _B,4A,2F,2 | 
[V:1] B4A4 | 
[V:2] g3fd4 | 
[V:3] z8 | 
[V:4] G,2D,3E,F,2 | 
[V:1] G2E2D2G2- | 
[V:2] e3dB2d2- | 
[V:3] z8 | 
[V:4] G,2A,2B,2G,2 | 
[V:1] G2^F2G4 | 
[V:2] d2c2d4 | 
[V:3] z8 | 
[V:4] A,4G,4 | 
[V:1] z8 | 
[V:2] z2e3ee2 | 
[V:3] A,3A,A,2C2- | 
[V:4] z8 | 
[V:1] z8 | 
[V:2] e2f2g4 | 
[V:3] C2A,2_B,2G,2 | 
[V:4] z8 | 
[V:1] z4A4 | 
[V:2] a4f2f2 | 
[V:3] F,4z4 | 
[V:4] z8 | 
[V:1] A2A2A2c2- | 
[V:2] f2f2f3e | 
[V:3] z8 | 
[V:4] z8 | 
[V:1] c2A2_B2G2 | 
[V:2] c2f3de2 | 
[V:3] z8 | 
[V:4] z8 | 
[V:1] F4E4 | 
[V:2] f2d2c4 | 
[V:3] z8 | 
[V:4] z8 | 
[V:1] E2A3GG2- | 
[V:2] c2c2e3d | 
[V:3] A,,4C,4 | 
[V:4] z8 | 
[V:1] GFEDF2EE- | 
[V:2] B2c2d2z2 | 
[V:3] E,4D,3C, | 
[V:4] G,4A,4- | 
[V:1] ECB,2A,2C2 | 
[V:2] c2df2de2 | 
[V:3] A,,2D,4G,2 | 
[V:4] A,2F,4E,2 | 
[V:1] DF2GA2_B2- | 
[V:2] f3ec2e2 | 
[V:3] F,2A,3F,G,2 | 
[V:4] D,3C,A,,2G,,2 | 
[V:1] BAA3GE2 | 
[V:2] f2d4^c2 | 
[V:3] D,2F,2E,4 | 
[V:4] D,4A,,4 | 
[V:1] F4D4 | 
[V:2] d3cA4 | 
[V:3] D,8 | 
[V:4] A,4z4 | 
[V:1] z8 | 
[V:2] z8 | 
[V:3] z8 | 
[V:4] B,,4C,4 | 
[V:1] z8 | 
[V:2] z8 | 
[V:3] B,,4C,4 | 
[V:4] D,3C,A,,2A,2- | 
[V:1] z8 | 
[V:2] z8 | 
[V:3] D,4A,,2A,2- | 
[V:4] A,2F,2E,2F,2 | 
[V:1] z8 | 
[V:2] z8 | 
[V:3] A,2F,2E,2F,2 | 
[V:4] D,4C,2D,2- | 
[V:1] z8 | 
[V:2] z8 | 
[V:3] D,4C,2D,2- | 
[V:4] D,2B,,2A,,2G,,2 | 
[V:1] z8 | 
[V:2] z8 | 
[V:3] D,2B,,2A,,2G,,2 | 
[V:4] D,3B,,C,2D,2 | 
[V:1] z8 | 
[V:2] z8 | 
[V:3] D,3B,,C,2D,2- | 
[V:4] F,2E,2A,4 | 
[V:1] z8 | 
[V:2] z8 | 
[V:3] D,2C,2D,4 | 
[V:4] F,2E,2D,2E,2- | 
[V:1] z8 | 
[V:2] z8 | 
[V:3] C,2D,4A,,2 | 
[V:4] E,D,/C,/B,,2G,,2C,2 | 
[V:1] z8 | 
[V:2] z8 | 
[V:3] D,2F,2E,4 | 
[V:4] B,,2D,4^C,2 | 
[V:1] z4E2F2 | 
[V:2] z4c2d2 | 
[V:3] D,4z4 | 
[V:4] D,4z4 | 
[V:1] G2G2G2G2 | 
[V:2] e2e2e2e2 | 
[V:3] z8 | 
[V:4] z8 | 
[V:1] G4G2G2- | 
[V:2] e3dB2c2 | 
[V:3] z8 | 
[V:4] z8 | 
[V:1] G2F2E2A2- | 
[V:2] G2A4c2 | 
[V:3] z8 | 
[V:4] z8 | 
[V:1] A2^G2A4 | 
[V:2] B4A4 | 
[V:3] z8 | 
[V:4] z8 | 
[V:1] A4_B4 | 
[V:2] z8 | 
[V:3] z8 | 
[V:4] z8 | 
[V:1] A4G3F | 
[V:2] a4_b4 | 
[V:3] z8 | 
[V:4] z8 | 
[V:1] A4G2G2- | 
[V:2] a2f2g2_b2 | 
[V:3] z8 | 
[V:4] z8 | 
[V:1] G2^F2G4 | 
[V:2] a4g4 | 
[V:3] z8 | 
[V:4] z8 | 
[V:1] z4G4 | 
[V:2] f2d4e2 | 
[V:3] D,4G,4 | 
[V:4] A,4_B,4 | 
[V:1] A4B4 | 
[V:2] f4d4 | 
[V:3] F,2D,4B,,2 | 
[V:4] A,4F,2G,2 | 
[V:1] c6B2- | 
[V:2] c2e4d2 | 
[V:3] A,,2C,3B,,G,,2 | 
[V:4] A,4G,2G,2- | 
[V:1] BGA2B4 | 
[V:2] d8 | 
[V:3] D,4G,,4 | 
[V:4] G,2^F,2G,4 | 
[V:1] z2_B4B2 | 
[V:2] z8 | 
[V:3] G,4G,2G,2- | 
[V:4] z8 | 
[V:1] _B4B2B2 | 
[V:2] z8 | 
[V:3] G,2G,2G,2G,2 | 
[V:4] z8 | 
[V:1] _B2G2z2B2- | 
[V:2] z8 | 
[V:3] E,4D,4 | 
[V:4] z8 | 
[V:1] B2A4G2 | 
[V:2] z8 | 
[V:3] G,2A,2_B,3A, | 
[V:4] z8 | 
[V:1] A4z4 | 
[V:2] z4e4 | 
[V:3] F,4z4 | 
[V:4] z2A,4C2- | 
[V:1] z8 | 
[V:2] a4a2f2- | 
[V:3] z8 | 
[V:4] C2C2F,4 | 
[V:1] z8 | 
[V:2] f2_b4a2- | 
[V:3] z8 | 
[V:4] _B,4G,2F,2 | 
[V:1] z8 | 
[V:2] aff4e2 | 
[V:3] z8 | 
[V:4] A,3B,C4 | 
[V:1] z4F4- | 
[V:2] f4d4- | 
[V:3] z4F,4- | 
[V:4] F,4A,4- | 
[V:1] F4G4- | 
[V:2] d4e4- | 
[V:3] F,4C,4- | 
[V:4] A,4C4- | 
[V:1] G4F2A2- | 
[V:2] e4d4 | 
[V:3] C,4D,4 | 
[V:4] C4A,4- | 
[V:1] AGE2D4 | 
[V:2] e4f3e | 
[V:3] A,,2C,2D,2F,2- | 
[V:4] A,8 | 
[V:1] A2B2c3B | 
[V:2] c3de3c | 
[V:3] F,2E,2C,3D, | 
[V:4] z4G,4- | 
[V:1] G2A2G2E2- | 
[V:2] B2z2e3d | 
[V:3] E,2D,2G,4- | 
[V:4] G,2F,2E,C,2D, | 
[V:1] E2F4D2- | 
[V:2] B2c2A2A2- | 
[V:3] G,2A,4F,2 | 
[V:4] E,2A,,2D,4 | 
[V:1] D2^C2D4- | 
[V:2] A2G2A4- | 
[V:3] E,4D,4- | 
[V:4] A,,2C,2z2F,2- | 
[V:1] D8- | 
[V:2] A8- | 
[V:3] D,8- | 
[V:4] F,2D,2F,3G, | 
[V:1] D8 ||  
[V:2] A8 ||  
[V:3] D,8 ||  
[V:4] A,8 ||  
[V:1]  [K:C] [K:clef=treble][M:2/1]A8 | 
[V:2]  [K:C] [K:clef=treble-8][M:2/1]z8 | 
[V:3]  [K:C] [K:clef=bass][M:2/1]A,,8 | 
[V:4]  [K:C] [K:clef=bass][M:2/1]z8 | 
[V:1] G4E4 | 
[V:2] z8 | 
[V:3] C,4C,4 | 
[V:4] z8 | 
[V:1] F4A4- | 
[V:2] z8 | 
[V:3] D,6C,B,, | 
[V:4] z8 | 
[V:1] A2GFE4 | 
[V:2] z8 | 
[V:3] A,,8 | 
[V:4] z8 | 
[V:1] z4G4- | 
[V:2] z8 | 
[V:3] C,6C,2 | 
[V:4] z8 | 
[V:1] G2G2G4 | 
[V:2] z8 | 
[V:3] C,4E,4- | 
[V:4] z8 | 
[V:1] B6A2 | 
[V:2] z8 | 
[V:3] E,2D,2D,4 | 
[V:4] z8 | 
[V:1] A4A4 | 
[V:2] z8 | 
[V:3] D,4F,4- | 
[V:4] z8 | 
[V:1] c8 | 
[V:2] z8 | 
[V:3] F,4C,4 | 
[V:4] z8 | 
[V:1] A4c4 | 
[V:2] z8 | 
[V:3] F,8 | 
[V:4] z8 | 
[V:1] B4d4- | 
[V:2] z8 | 
[V:3] G,8 | 
[V:4] z8 | 
[V:1] d2cBA4 | 
[V:2] z8 | 
[V:3] F,8 | 
[V:4] z8 | 
[V:1] z8 | 
[V:2] z4e4- | 
[V:3] z8 | 
[V:4] A,,8 | 
[V:1] z8 | 
[V:2] e4e4 | 
[V:3] z8 | 
[V:4] C,4C,4 | 
[V:1] z8 | 
[V:2] d4f4- | 
[V:3] z8 | 
[V:4] D,6C,B,, | 
[V:1] z8 | 
[V:2] f2edc4 | 
[V:3] z8 | 
[V:4] A,,4A,,4 | 
[V:1] z8 | 
[V:2] c4e4 | 
[V:3] z8 | 
[V:4] C,4C,4 | 
[V:1] z8 | 
[V:2] e4e4 | 
[V:3] z8 | 
[V:4] C,4E,4- | 
[V:1] z8 | 
[V:2] g6f2 | 
[V:3] z8 | 
[V:4] E,2D,2D,4 | 
[V:1] z8 | 
[V:2] f4c4 | 
[V:3] z8 | 
[V:4] D,4F,4- | 
[V:1] z8 | 
[V:2] f4g4 | 
[V:3] z8 | 
[V:4] F,4C,4 | 
[V:1] z8 | 
[V:2] a4f4 | 
[V:3] z8 | 
[V:4] F,8 | 
[V:1] z8 | 
[V:2] d4e4 | 
[V:3] z8 | 
[V:4] G,8 | 
[V:1] z4A4 | 
[V:2] f8 | 
[V:3] z8 | 
[V:4] F,8 | 
[V:1] c4c4 | 
[V:2] z4f4 | 
[V:3] z8 | 
[V:4] z8 | 
[V:1] F4F4 | 
[V:2] a4a4 | 
[V:3] z8 | 
[V:4] z8 | 
[V:1] _B4B4 | 
[V:2] d6e2 | 
[V:3] z8 | 
[V:4] z8 | 
[V:1] A4c4- | 
[V:2] f4f4 | 
[V:3] z8 | 
[V:4] z8 | 
[V:1] c2B2G4 | 
[V:2] c4c4 | 
[V:3] z8 | 
[V:4] z8 | 
[V:1] F4A4- | 
[V:2] d4d4 | 
[V:3] z8 | 
[V:4] z8 | 
[V:1] A2G2E4 | 
[V:2] A4z4 | 
[V:3] z4A,,4 | 
[V:4] z8 | 
[V:1] z8 | 
[V:2] z8 | 
[V:3] B,,4C,4 | 
[V:4] z4A,,4 | 
[V:1] z8 | 
[V:2] f4e4 | 
[V:3] D,4E,4 | 
[V:4] B,,4C,4 | 
[V:1] G4A4 | 
[V:2] z8 | 
[V:3] D,4G,4 | 
[V:4] D,4E,4 | 
[V:1] F4E4 | 
[V:2] z8 | 
[V:3] F,2D,2E,4 | 
[V:4] D,4G,4 | 
[V:1] z8 | 
[V:2] z8 | 
[V:3] D,4C,4 | 
[V:4] F,2D,2E,4 | 
[V:1] z8 | 
[V:2] z8 | 
[V:3] D,4E,2F,2- | 
[V:4] D,2F,2G,2A,2- | 
[V:1] z8 | 
[V:2] z8 | 
[V:3] F,2E,D,C,4 | 
[V:4] A,2G,F,E,4 | 
[V:1] z4A4- | 
[V:2] z4d4- | 
[V:3] z4F,4- | 
[V:4] z4D,4- | 
[V:1] A4A4 | 
[V:2] d4d4 | 
[V:3] F,4F,4 | 
[V:4] D,4D,4 | 
[V:1] A8 | 
[V:2] d8 | 
[V:3] F,8 | 
[V:4] D,8 | 
[V:1] A4G4 | 
[V:2] A4B4 | 
[V:3] F,4E,4 | 
[V:4] D,4G,4 | 
[V:1] E4F4- | 
[V:2] c4d4- | 
[V:3] E,4D,4- | 
[V:4] G,4A,4- | 
[V:1] F2EFG2A2 | 
[V:2] d2cde4 | 
[V:3] D,4C,4 | 
[V:4] A,4C4 | 
[V:1] B2c4A2 | 
[V:2] f4e2c2 | 
[V:3] D,2A,,4C,2 | 
[V:4] B,2A,2E,2A,2- | 
[V:1] B2d2c4 | 
[V:2] d4z4 | 
[V:3] B,,4A,,4 | 
[V:4] A,2^G,2A,4 | 
[V:1] z8 | 
[V:2] e8 | 
[V:3] z8 | 
[V:4] A,4C4 | 
[V:1] z8 | 
[V:2] e4g4 | 
[V:3] z8 | 
[V:4] C4B,4- | 
[V:1] z8 | 
[V:2] g4f4- | 
[V:3] z8 | 
[V:4] B,2G,2A,4 | 
[V:1] z8 | 
[V:2] f2d2e4 | 
[V:3] z8 | 
[V:4] B,4C4- | 
[V:1] z8 | 
[V:2] g8 | 
[V:3] z8 | 
[V:4] C4C4 | 
[V:1] z8 | 
[V:2] g4a4- | 
[V:3] z8 | 
[V:4] C6C2 | 
[V:1] z8 | 
[V:2] a2a2a4 | 
[V:3] z8 | 
[V:4] C4F,4 | 
[V:1] z8 | 
[V:2] g2e4f2 | 
[V:3] z8 | 
[V:4] G,4A,4 | 
[V:1] z8 | 
[V:2] e2g4e2 | 
[V:3] z8 | 
[V:4] G,4C2C2- | 
[V:1] z8 | 
[V:2] d4c4 | 
[V:3] z8 | 
[V:4] C2B,2C4 | 
[V:1] z4E4- | 
[V:2] z8 | 
[V:3] C,8 | 
[V:4] z8 | 
[V:1] E4E4 | 
[V:2] z8 | 
[V:3] C,4E,4 | 
[V:4] z8 | 
[V:1] G4G4 | 
[V:2] z8 | 
[V:3] E,4G,4 | 
[V:4] z8 | 
[V:1] B4B4 | 
[V:2] z8 | 
[V:3] G,4D,4 | 
[V:4] z8 | 
[V:1] A4c4- | 
[V:2] z8 | 
[V:3] F,6E,2 | 
[V:4] z8 | 
[V:1] c2B2G2A2- | 
[V:2] z8 | 
[V:3] C,4E,2F,2 | 
[V:4] z8 | 
[V:1] A2GFE4 | 
[V:2] z8 | 
[V:3] D,4C,4 | 
[V:4] z8 | 
[V:1] z8 | 
[V:2] c4d4 | 
[V:3] z8 | 
[V:4] E,4D,4 | 
[V:1] z8 | 
[V:2] f4e4 | 
[V:3] z8 | 
[V:4] D,4C,4 | 
[V:1] G4A4 | 
[V:2] z8 | 
[V:3] E,4D,4 | 
[V:4] z8 | 
[V:1] F4E4 | 
[V:2] z8 | 
[V:3] D,4C,4 | 
[V:4] z8 | 
[V:1] z8 | 
[V:2] z8 | 
[V:3] C,4F,4 | 
[V:4] z4D,4 | 
[V:1] z8 | 
[V:2] z8 | 
[V:3] F,4E,4- | 
[V:4] A,8 | 
[V:1] z8 | 
[V:2] z8 | 
[V:3] E,4D,4- | 
[V:4] G,4F,4 | 
[V:1] z8 | 
[V:2] z8 | 
[V:3] D,4A,,4- | 
[V:4] A,6G,F, | 
[V:1] z4A4 | 
[V:2] z4f4- | 
[V:3] A,,4z4 | 
[V:4] E,4z4 | 
[V:1] A4c4- | 
[V:2] f4f4 | 
[V:3] z8 | 
[V:4] z8 | 
[V:1] c2B2G4 | 
[V:2] c4e4 | 
[V:3] z8 | 
[V:4] z8 | 
[V:1] F4_B4- | 
[V:2] f4g4- | 
[V:3] z8 | 
[V:4] z8 | 
[V:1] B4A4 | 
[V:2] g2f2f2e2 | 
[V:3] z8 | 
[V:4] z8 | 
[V:1] A4A4 | 
[V:2] c4z4 | 
[V:3] z4F,4 | 
[V:4] z4C4- | 
[V:1] A6A2 | 
[V:2] f4f4 | 
[V:3] F,4F,4- | 
[V:4] C4C4 | 
[V:1] A4B4 | 
[V:2] f6f2 | 
[V:3] F,2E,2D,4 | 
[V:4] D4D4 | 
[V:1] c8 | 
[V:2] e4c4 | 
[V:3] C,4E,4 | 
[V:4] G,4G,4 | 
[V:1] A4B4- | 
[V:2] f6d2 | 
[V:3] F,4G,4- | 
[V:4] A,2C4B,2 | 
[V:1] B4A4- | 
[V:2] e4f4- | 
[V:3] G,4F,4 | 
[V:4] B,2A,2C4 | 
[V:1] A4z4 | 
[V:2] f4z4 | 
[V:3] F,4E,4 | 
[V:4] A,6B,2 | 
[V:1] z8 | 
[V:2] z8 | 
[V:3] E,4D,4- | 
[V:4] C2B,CD4 | 
[V:1] z8 | 
[V:2] z8 | 
[V:3] D,4D,4 | 
[V:4] C2A,2_B,2A,2- | 
[V:1] z8 | 
[V:2] z8 | 
[V:3] A,,4C,4 | 
[V:4] A,2F,2E,4 | 
[V:1] z8 | 
[V:2] z8 | 
[V:3] D,4A,,4 | 
[V:4] D,4F,4 | 
[V:1] z8 | 
[V:2] z8 | 
[V:3] A,,4F,4 | 
[V:4] E,4D,4 | 
[V:1] z8 | 
[V:2] z8 | 
[V:3] F,4E,4 | 
[V:4] D,4G,4 | 
[V:1] z8 | 
[V:2] z8 | 
[V:3] E,4D,4 | 
[V:4] G,4F,4 | 
[V:1] z8 | 
[V:2] z8 | 
[V:3] D,4A,,4 | 
[V:4] F,4E,3F, | 
[V:1] z8 | 
[V:2] z8 | 
[V:3] B,,2A,,4D,2- | 
[V:4] G,2A,4D,2 | 
[V:1] z8 | 
[V:2] z8 | 
[V:3] D,2^C,2D,4 | 
[V:4] E,4D,4 | 
[V:1] z8 | 
[V:2] g8 | 
[V:3] z8 | 
[V:4] z4_B,4 | 
[V:1] z8 | 
[V:2] f4f4 | 
[V:3] z8 | 
[V:4] A,4A,4 | 
[V:1] z8 | 
[V:2] g6fe | 
[V:3] z8 | 
[V:4] G,4_B,4- | 
[V:1] z8 | 
[V:2] d4c3d | 
[V:3] z8 | 
[V:4] B,4A,2F,2 | 
[V:1] z8 | 
[V:2] e2f2e2a2- | 
[V:3] z8 | 
[V:4] G,2A,4C2 | 
[V:1] z8 | 
[V:2] a2^g2a4- | 
[V:3] z8 | 
[V:4] B,4A,4 | 
[V:1] z8 | 
[V:2] a4z4 | 
[V:3] z8 | 
[V:4] F,4_B,4 | 
[V:1] z8 | 
[V:2] f4_b4 | 
[V:3] z8 | 
[V:4] A,2F,2G,4 | 
[V:1] z8 | 
[V:2] a2f2g4 | 
[V:3] z8 | 
[V:4] F,2D,2z2C,2 | 
[V:1] z8 | 
[V:2] f2d4B2 | 
[V:3] z8 | 
[V:4] D,2F,2E,4 | 
[V:1] z8 | 
[V:2] c2e4c2 | 
[V:3] z8 | 
[V:4] A,,4z4 | 
[V:1] z8 | 
[V:2] B4A4 | 
[V:3] G,4A,4 | 
[V:4] z8 | 
[V:1] z4G4 | 
[V:2] z8 | 
[V:3] G,2F,2E,4 | 
[V:4] z8 | 
[V:1] A4G2F2 | 
[V:2] z8 | 
[V:3] D,4z4 | 
[V:4] z8 | 
[V:1] E4C2D2- | 
[V:2] z8 | 
[V:3] C,4F,4 | 
[V:4] z8 | 
[V:1] D2C2A,4 | 
[V:2] z8 | 
[V:3] F,6G,2 | 
[V:4] z8 | 
[V:1] z2C3DE2 | 
[V:2] z8 | 
[V:3] A,4E,4 | 
[V:4] z8 | 
[V:1] F2G4F2- | 
[V:2] z8 | 
[V:3] z2E,4D,2 | 
[V:4] z8 | 
[V:1] F2E3CD2 | 
[V:2] z8 | 
[V:3] E,4F,4 | 
[V:4] z8 | 
[V:1] E4z4 | 
[V:2] z4e4 | 
[V:3] E,4A,,4 | 
[V:4] z4A,4 | 
[V:1] E4G4- | 
[V:2] c4c4 | 
[V:3] C,4C,4 | 
[V:4] A,4E,4 | 
[V:1] G2A2B2AB | 
[V:2] d4d4 | 
[V:3] B,,4B,,4 | 
[V:4] G,4G,4 | 
[V:1] c3BG4 | 
[V:2] e4z2e2 | 
[V:3] A,,4C,4 | 
[V:4] z2A,2G,2E,2 | 
[V:1] z4G4 | 
[V:2] f2d4c2 | 
[V:3] D,2F,2E,4 | 
[V:4] D,2A,2B,2G,2 | 
[V:1] F2A3GE2- | 
[V:2] d2f2e2a2- | 
[V:3] D,4A,,4 | 
[V:4] A,4C4- | 
[V:1] E2G2F4 | 
[V:2] age2f2d2 | 
[V:3] C,4D,4 | 
[V:4] C2B,2A,4 | 
[V:1] E4z2B2- | 
[V:2] c4d4 | 
[V:3] E,4F,2G,2- | 
[V:4] G,4A,2B,2 | 
[V:1] B2c4A2 | 
[V:2] z2f4e2 | 
[V:3] G,2F,2A,4 | 
[V:4] G,2A,4A,,2 | 
[V:1] B4A4 | 
[V:2] e4c3d | 
[V:3] G,3F,A,3G, | 
[V:4] E,4F,3E, | 
[V:1] G2A2c2_B2- | 
[V:2] e2f2e2f2- | 
[V:3] E,2D,2C,2D,2- | 
[V:4] C,2F,2z2_B,,2- | 
[V:1] B2A6 | 
[V:2] f2d4^c2 | 
[V:3] D,2F,2E,4 | 
[V:4] B,,2D,2A,,4 | 
[V:1] F3DF3G | 
[V:2] d8- | 
[V:3] D,8- | 
[V:4] A,8- | 
[V:1] A8 |]  
[V:2] d8 |]  
[V:3] D,8 |]  
[V:4] A,8 |]  



